docs/images/copy.svg

<?xml version="1.0" encoding="UTF-8" standalone="no"?>
<svg
   width="64"
   height="64"
   viewBox="0 0 64 64"
   version="1.1"
   xmlns="http://www.w3.org/2000/svg"
>
  <path
     d="M 22.4,0 C 18.865376,0 16,2.865376 16,6.4 v 6.4 h 6.4 V 6.4 H 57.6 V 41.6 H 51.2 V 48 h 6.4 C 61.13472,48 64,45.13472 64,41.6 V 6.4 C 64,2.865376 61.13472,0 57.6,0 Z M 6.4,16 C 2.865376,16 0,18.865376 0,22.4 V 57.6 C 0,61.13472 2.865376,64 6.4,64 H 41.6 C 45.13472,64 48,61.13472 48,57.6 V 22.4 C 48,18.865376 45.13472,16 41.6,16 Z m 0,6.4 H 41.6 V 57.6 H 6.4 Z"
     fill="#09244b"
     style="fill:#e2725b;fill-opacity:1;stroke-width:3.2" />
</svg>

<svg xmlns="http://www.w3.org/2000/svg" width="64" height="64">
    <path fill="#09244b" d="M22.4 0A6.4 6.4 0 0 0 16 6.4v6.4h6.4V6.4h35.2v35.2h-6.4V48h6.4a6.4 6.4 0 0 0 6.4-6.4V6.4A6.4 6.4 0 0 0 57.6 0Zm-16 16A6.4 6.4 0 0 0 0 22.4v35.2A6.4 6.4 0 0 0 6.4 64h35.2a6.4 6.4 0 0 0 6.4-6.4V22.4a6.4 6.4 0 0 0-6.4-6.4Zm0 6.4h35.2v35.2H6.4Z" style="fill:#e2725b;fill-opacity:1;stroke-width:3.2"/>
</svg>
